Flat-Remix-Dark/apps/scalable/desktop-environment-gnome.svg

<svg width="512" height="512" version="1.1" viewBox="0 0 384 384" xmlns="http://www.w3.org/2000/svg" xmlns:xlink="http://www.w3.org/1999/xlink">
 <defs>
  <linearGradient id="linearGradient4150-5" x1="-44" x2="-24" y1="-24" y2="-24" gradientTransform="matrix(.94245151 -.95611607 -.95611595 -.94245157 260.16632 113.49946)" gradientUnits="userSpaceOnUse" xlink:href="#linearGradient4144"/>
  <linearGradient id="linearGradient4144">
   <stop stop-opacity="0" offset="0"/>
   <stop offset="1"/>
  </linearGradient>
  <linearGradient id="linearGradient4156-7" x1="-44" x2="-24" y1="-24" y2="-24" gradientTransform="matrix(-.95611595 -.94245157 .94245151 -.95611607 260.16632 113.49946)" gradientUnits="userSpaceOnUse" xlink:href="#linearGradient4144"/>
 </defs>
 <ellipse cx="192" cy="199.5" rx="168.63153" ry="168.93921" style="fill-opacity:.99607843;fill:#060002;opacity:.3"/>
 <g transform="matrix(2.481335,0,0,2.481335,-1126.1839,288.09236)">
  <ellipse cx="531.24" cy="-38.726" rx="67.96" ry="68.084" style="fill-opacity:.99607843;fill:rgb(72.156%,9.019%,29.803%)"/>
  <g transform="matrix(.77713255 0 0 .77713255 493.85589 -79.877974)" style="opacity:.3">
   <path d="m86.068 0c-24.602 0-29.217 35.041-15.377 35.041 13.838 0 39.98-35.041 15.377-35.041z"/>
   <path d="m45.217 30.699c7.369 0.45 15.454-28.122 1.604-26.325-13.845 1.797-8.976 25.875-1.604 26.325z"/>
   <path d="m11.445 48.453c5.241-2.307 0.675-24.872-8.237-18.718-8.908 6.155 2.996 21.024 8.237 18.718z"/>
   <path d="m26.212 36.642c6.239-1.272 6.581-26.864-4.545-22.273-11.128 4.592-1.689 23.547 4.545 22.273z"/>
   <path d="m58.791 93.913c1.107 8.454-6.202 12.629-13.36 7.179-22.787-17.349 37.729-26.004 33.74-49.706-3.311-19.674-63.676-13.617-70.55 17.167-4.653 20.821 19.153 49.707 43.993 49.707 12.22 0 26.315-11.034 28.952-25.012 2.014-10.659-23.699-6.388-22.775 0.665z"/>
  </g>
  <g transform="matrix(2.9890605,0,0,2.9890605,-247.56292,-519.06436)">
   <path d="m245.08598 143.87685a22.752357 22.752357 0 0 0 -7.28719 16.66181 22.752357 22.752357 0 0 0 22.75222 22.75222 22.752357 22.752357 0 0 0 16.87882 -7.53257z" style="fill:url(#linearGradient4150-5);opacity:.2"/>
   <path d="m275.72262 143.61585-31.87625 32.33865a22.752357 22.752357 0 0 0 16.70464 7.33638 22.752357 22.752357 0 0 0 22.75221 -22.75222 22.752357 22.752357 0 0 0 -7.5806 -16.92281z" style="fill:url(#linearGradient4156-7);opacity:.2"/>
  </g>
  <g transform="matrix(.77713255 0 0 .77713255 493.85589 -84.677936)" style="fill:rgb(100.000%,100.000%,100.000%)">
   <g style="fill:rgb(100.000%,100.000%,100.000%)">
    <path d="m86.068 0c-24.602 0-29.217 35.041-15.377 35.041 13.838 0 39.98-35.041 15.377-35.041z" style="fill:rgb(100.000%,100.000%,100.000%)"/>
    <path d="m45.217 30.699c7.369 0.45 15.454-28.122 1.604-26.325-13.845 1.797-8.976 25.875-1.604 26.325z" style="fill:rgb(100.000%,100.000%,100.000%)"/>
    <path d="m11.445 48.453c5.241-2.307 0.675-24.872-8.237-18.718-8.908 6.155 2.996 21.024 8.237 18.718z" style="fill:rgb(100.000%,100.000%,100.000%)"/>
    <path d="m26.212 36.642c6.239-1.272 6.581-26.864-4.545-22.273-11.128 4.592-1.689 23.547 4.545 22.273z" style="fill:rgb(100.000%,100.000%,100.000%)"/>
    <path d="m58.791 93.913c1.107 8.454-6.202 12.629-13.36 7.179-22.787-17.349 37.729-26.004 33.74-49.706-3.311-19.674-63.676-13.617-70.55 17.167-4.653 20.821 19.153 49.707 43.993 49.707 12.22 0 26.315-11.034 28.952-25.012 2.014-10.659-23.699-6.388-22.775 0.665z" style="fill:rgb(100.000%,100.000%,100.000%)"/>
   </g>
  </g>
 </g>
</svg>

<svg xmlns="http://www.w3.org/2000/svg" xmlns:xlink="http://www.w3.org/1999/xlink" width="384pt" height="384pt" version="1.1" viewBox="0 0 384 384"> <defs> <linearGradient id="linearGradient4150-5" x1="-44" x2="-24" y1="-24" y2="-24" gradientTransform="matrix(0.94245151,-0.95611607,-0.95611595,-0.94245157,260.16632,113.49946)" gradientUnits="userSpaceOnUse" xlink:href="#linearGradient4144"/> <linearGradient id="linearGradient4144"> <stop offset="0" stop-opacity="0"/> <stop offset="1"/> </linearGradient> <linearGradient id="linearGradient4156-7" x1="-44" x2="-24" y1="-24" y2="-24" gradientTransform="matrix(-0.95611595,-0.94245157,0.94245151,-0.95611607,260.16632,113.49946)" gradientUnits="userSpaceOnUse" xlink:href="#linearGradient4144"/> </defs> <g transform="matrix(2.481335,0,0,2.481335,-1126.1839,288.09236)"> <ellipse cx="531.24" cy="-38.726" rx="67.96" ry="68.084" style="fill:rgb(72.156%,9.019%,29.803%);fill-opacity:0.99607843"/> <g transform="matrix(0.77713255,0,0,0.77713255,493.85589,-79.877974)" style="opacity:0.3"> <g> <path d="M 86.068,0 C 61.466,0 56.851,35.041 70.691,35.041 84.529,35.041 110.671,0 86.068,0 Z"/> <path d="M 45.217,30.699 C 52.586,31.149 60.671,2.577 46.821,4.374 32.976,6.171 37.845,30.249 45.217,30.699 Z"/> <path d="M 11.445,48.453 C 16.686,46.146 12.12,23.581 3.208,29.735 -5.7,35.89 6.204,50.759 11.445,48.453 Z"/> <path d="M 26.212,36.642 C 32.451,35.37 32.793,9.778 21.667,14.369 10.539,18.961 19.978,37.916 26.212,36.642 Z"/> <path d="m 58.791,93.913 c 1.107,8.454 -6.202,12.629 -13.36,7.179 C 22.644,83.743 83.16,75.088 79.171,51.386 75.86,31.712 15.495,37.769 8.621,68.553 3.968,89.374 27.774,118.26 52.614,118.26 c 12.22,0 26.315,-11.034 28.952,-25.012 C 83.58,82.589 57.867,86.86 58.791,93.913 Z"/> </g> </g> <g transform="matrix(2.9890605,0,0,2.9890605,-247.56292,-519.06436)"> <path d="m 245.08598,143.87685 a 22.752357,22.752357 0 0 0 -7.28719,16.66181 22.752357,22.752357 0 0 0 22.75222,22.75222 22.752357,22.752357 0 0 0 16.87882,-7.53257 z" style="opacity:0.2;fill:url(#linearGradient4150-5)"/> <path d="m 275.72262,143.61585 -31.87625,32.33865 a 22.752357,22.752357 0 0 0 16.70464,7.33638 22.752357,22.752357 0 0 0 22.75221,-22.75222 22.752357,22.752357 0 0 0 -7.5806,-16.92281 z" style="opacity:0.2;fill:url(#linearGradient4156-7)"/> </g> <g transform="matrix(0.77713255,0,0,0.77713255,493.85589,-84.677936)" style="fill:rgb(100.000%,100.000%,100.000%)"> <g style="fill:rgb(100.000%,100.000%,100.000%)"> <path d="M 86.068,0 C 61.466,0 56.851,35.041 70.691,35.041 84.529,35.041 110.671,0 86.068,0 Z" style="fill:rgb(100.000%,100.000%,100.000%)"/> <path d="M 45.217,30.699 C 52.586,31.149 60.671,2.577 46.821,4.374 32.976,6.171 37.845,30.249 45.217,30.699 Z" style="fill:rgb(100.000%,100.000%,100.000%)"/> <path d="M 11.445,48.453 C 16.686,46.146 12.12,23.581 3.208,29.735 -5.7,35.89 6.204,50.759 11.445,48.453 Z" style="fill:rgb(100.000%,100.000%,100.000%)"/> <path d="M 26.212,36.642 C 32.451,35.37 32.793,9.778 21.667,14.369 10.539,18.961 19.978,37.916 26.212,36.642 Z" style="fill:rgb(100.000%,100.000%,100.000%)"/> <path d="m 58.791,93.913 c 1.107,8.454 -6.202,12.629 -13.36,7.179 C 22.644,83.743 83.16,75.088 79.171,51.386 75.86,31.712 15.495,37.769 8.621,68.553 3.968,89.374 27.774,118.26 52.614,118.26 c 12.22,0 26.315,-11.034 28.952,-25.012 C 83.58,82.589 57.867,86.86 58.791,93.913 Z" style="fill:rgb(100.000%,100.000%,100.000%)"/> </g> </g> </g> </svg>
